X:1
T:Der Jüngling an der Quelle
T:Der Jüngling an der Quelle
T:The Youth in the Spring
T:Franz SCHUBERT
T:Public Domain
T:Public Domain
C:Franz SCHUBERT
Z:Public Domain
%%score 1 { 2 | ( 3 4 ) }
L:1/8
Q:1/4=71
M:6/8
K:A
V:1 treble nm="Flute" snm="Fl."
V:2 treble nm="Piano" snm="Pno."
V:3 bass 
V:4 bass 
V:1
"^Adagio" z6 | z6 | z6 | z6 | EAc E>Ac | B3 z2 e | E>GB E>GB |{B} AA z z AA | d>fd ^B3 | %9
w: ||||Lei- * se, rie- seln der|Quell, ihr|wal- len- den flis- pern den|Pap- peln eu- er|Schlum- mer- ge räusch|
 c>Ac e>cA | (E3 e3-) | e3 z2 z | EAc E>Ac | B3 z2 e | E>GB E>GB |{B} A2 A e2 A | f>ef d3 | %17
w: we- cket die Lie- be nur|auf. _|_|Lin- de- rung sucht' ich bei|euch, und|sie zu ver- ges- sen, die|Sprö- de; ach, und|Blät- ter und Bach|
 e>=cA e>cA | B3 cag | f>ef d3 | e3 ^d2 d | e3- e=dB | A2 z z2 c | e6 | %24
w: seuf- zen: Lou- i- se, dir|nach! Ach, _ und|Blät- ter und Bach|seuf- zen: Lou-|i- * se, dir|nach! Lou-|i-|
 c2 z z2[Q:1/4=60]"^Lento" c | e6 | c2 z z2 z | z6 | !fermata!z6 |] %29
w: se! Lou-|i-|se!|||
V:2
!p! c/e/c/f/c/g/ c/a/c/g/c/f/ | c/e/c/e/c/e/ d/e/d/e/d/e/ | B/e/c/f/c/g/ c/a/c/g/c/f/ | %3
 c/e/c/e/c/e/ d/e/d/e/d/e/ | c/e/c/e/c/e/ c/e/c/e/c/e/ | d/e/d/e/d/e/ d/e/d/e/d/e/ | %6
 d/e/d/e/d/e/ d/e/d/e/d/e/ | c/e/c/e/c/e/ c/e/c/e/c/e/ | d/f/d/f/d/f/ ^B/^d/B/d/B/d/ | %9
 c/e/c/e/c/e/ c/e/c/e/c/e/ | [GB]/e/[GB]/e/[GB]/e/ [Ac]/e/[Ac]/e/[Ac]/e/ | %11
 [Bd]/e/[Bd]/e/[Bd]/e/ [Ac]/e/[AB]/e/[GB]/e/ | c/e/c/e/c/e/ c/e/c/e/c/e/ | %13
 d/e/d/e/d/e/ d/e/d/e/d/e/ | d/e/d/e/d/e/ d/e/d/e/d/e/ | c/e/c/e/c/e/ c/e/c/e/c/e/ | %16
 d/=f/d/f/d/f/ B/d/B/d/B/d/ | =c/e/c/e/c/e/ c/e/c/e/c/e/ | B/e/B/e/B/e/ ^c/e/c/e/c/e/ | %19
 d/=f/d/f/d/f/ B/d/B/d/B/d/ | =c/e/c/e/c/e/ [Ac]/^d/[Ac]/d/[Ac]/d/ | %21
 [A^c]/e/[Ac]/e/[Ac]/e/ [G=d]/e/[Gd]/e/[Gd]/e/ |!pp! B/e/c/f/c/g/ c/a/c/g/c/f/ | %23
 c/e/c/e/c/e/ c/e/c/e/c/e/ | B/e/c/f/c/g/ c/a/c/g/c/f/ | c/e/c/e/c/e/ d/e/d/e/d/e/ | %26
 c/e/c/e/c/e/ c/e/c/e/c/e/ | c/e/c/e/c/e/ c/e/c/e/c/e/ | !fermata![ce]6 |] %29
V:3
 C,B,,A,, G,,A,,B,, | C,G,,E,, B,,G,,D,, | C,B,,A,, G,,A,,B,, | C,G,,E,, B,,G,,D,, | %4
 C,G,,E,, B,,G,,E,, | B,,G,,D,, B,,G,,D,, | B,,G,,F,, B,,G,,F,, | C,G,,E,, B,,G,,E,, | %8
 C,A,,F,, B,,^F,,^D,, | C,G,,E,, B,,G,,E,, | G,,D,,B,,, G,,E,,^C,, | G,,F,,D,, E,,F,,G,, | %12
 C,G,,E,, B,,G,,E,, | B,,G,,D,, B,,G,,D,, | B,,G,,F,, B,,G,,F,, | C,G,,E,, B,,G,,E,, | %16
 C,=A,,F,, C,F,,D,, | C,G,,=E,, C,G,,E,, | B,,G,,D,, B,,G,,F,, | C,=A,,F,, C,F,,D,, | %20
 C,G,,=E,, ^F,,E,,C,, | G,,^E,,C,, G,,D,,G,,, | C,B,,A,, G,,A,,B,, | C,G,,E,, B,,G,,D,, | %24
 C,B,,A,, G,,A,,B,, | C,G,,E,, B,,G,,D,, | C,G,,E,, B,,G,,D,, | C,G,,E,, B,,G,,D,, | %28
 !fermata![C,,E,,C,]6 |] %29
V:4
 C,,6 | C,,6 | C,,6 | C,,6 | C,,6 | C,,6 | C,,6 | C,,6 | C,,6 | C,,6 | G,,,6- | G,,,6 | C,,6 | %13
 C,,6 | C,,6 | C,,6 | C,,6 | C,,6 | G,,,3 x3 | C,,6 | C,,3 =A,,,3 | G,,,6 | C,,6 | C,,6 | C,,6 | %25
 C,,6 | C,,6 | C,,6 | x6 |] %29

